X: 8487
T: Crazy Glass
R: reel
M: 4/4
K: Edorian
|:B2EF GBAG|FDAD BDAD|{A}B2EF GFGB|AFDF ~E3A|
B2EF GBAG|FDAD BDAD|GFEF GABc|1 dBAF BFAF:|2 dBAF ~E3A||
|:~B2ef ~g2eg|f~d3 Adfd|B/c/def g2fe|dBAF ~E3A|
~B2ef ~g2eg|f~d3 Adfd|~e3f g2fe|1 dBAF ~E3A:|2 dBAF BFAF||

